X: 191
T:Brave Wille Forster. HA.190
M:C
L:1/8
Q:1/4=240
C:"J.A."
S:Henry Atkinson's original MS,Hartburn,N'umberland,1694.
O:England
A:Hartburn,Northumberland
N:Several notes are slashed in MS. Also an indication of bowing. NB
H:1/8
Z:vmp.Neil Brookes, Jan.2004
K:D
d2d2 "-"f3e|d2d2 "-"f4|A2A2 "v"c3B|A2A2 e4|!
d2d2 "="f3e|d2d2 "="f3f|gfed cdec|d4 A4:|!
|:fgag fgag|fgag f2d2|efgf efgf|efgf "v"e2c2|!
fgag fgag|fgag "="f2d2|gfed cdec|"v"d4 A4:|]
